X: 4091
T: DROWSY MAGGIE
R: Reel.
%R: reel
B: James Kerr "Merry Melodies" v.4 p.12 #91
Z: 2016 John Chambers <jc:trillian.mit.edu>
M: C|
L: 1/8
K: Em
(dc) |:\
BE (3EEE (GE) BE | BE (3EEE B2 AF |\
D2 (3(FED) (AD) (3(FED) |[1 DAdc BAFA :|[2 FDdF E2(ed) |]
|:\
Bdef efed | Bdef gfed |\
[1 Bcde d^cdB | AFdF DEFA :|\
[2 faef defd | Bd AF E2 |]

%%sep 1 1 500
%%sep 1 1 500

